BEGIN
RESET
CLS

go left a bit
MB 0.5

draw the gear
REPEAT 18
R 30
F 0.1
R 150
F 0.1
L 160
ENDREP

go right and up
MF 0.7
L 90
MF 0.29
R 90

draw the big circle
REPEAT 180
F 0.01
R 2
ENDREP

draw the right eye
R 90
MF 0.3
R 90
MF 0.13
REPEAT 45
F 0.01
R 8
ENDREP

draw the left eye
R 180
MF 0.27
REPEAT 45
F 0.01
L 8
ENDREP


go left to middle
R 180
MF 0.14

go down draw nose
L 90
F 0.05

go down go left
MF 0.05
R 90
MF 0.11

L 90
REPEAT 37
F 0.01
L 5
ENDREP

END
